svgs/sharp-regular/abacus.svg

<svg xmlns="http://www.w3.org/2000/svg" viewBox="0 0 576 512"><!--! Font Awesome Pro 6.6.0 by @fontawesome - https://fontawesome.com License - https://fontawesome.com/license (Commercial License) Copyright 2024 Fonticons, Inc. --><path d="M528 80l0 128-80 0 0-32 8 0 24 0 0-48-24 0-8 0 0-48 80 0zM416 128l-8 0-24 0 0 48 24 0 8 0 0 32-128 0 0-32 8 0 24 0 0-48-24 0-8 0 0-48 128 0 0 48zm-160 0l-8 0-24 0 0 48 24 0 8 0 0 32-96 0 0-32 8 0 24 0 0-48-24 0-8 0 0-48 96 0 0 48zm-128 0l-8 0-24 0 0 48 24 0 8 0 0 32-80 0L48 80l80 0 0 48zM48 432l0-192 80 0 0 24-8 0-24 0 0 48 24 0 8 0 0 24-8 0-24 0 0 48 24 0 8 0 0 48-80 0zm112-48l8 0 24 0 0-48-24 0-8 0 0-24 8 0 24 0 0-48-24 0-8 0 0-24 96 0 0 24-8 0-24 0 0 48 24 0 8 0 0 24-8 0-24 0 0 48 24 0 8 0 0 48-96 0 0-48zm128-72l8 0 24 0 0-48-24 0-8 0 0-24 128 0 0 96-8 0-24 0 0 48 24 0 8 0 0 48-128 0 0-48 8 0 24 0 0-48-24 0-8 0 0-24zm160 72l8 0 24 0 0-48-24 0-8 0 0-96 80 0 0 192-80 0 0-48zM48 32L0 32 0 80 0 432l0 48 48 0 480 0 48 0 0-48 0-352 0-48-48 0L48 32z"/></svg>

<svg xmlns="http://www.w3.org/2000/svg" viewBox="0 0 576 512"><!--! Font Awesome Pro 6.4.2 by @fontawesome - https://fontawesome.com License - https://fontawesome.com/license (Commercial License) Copyright 2023 Fonticons, Inc. --><path d="M528 80V208H448V176h8 24V128H456h-8V80h80zM416 128h-8H384v48h24 8v32H288V176h8 24V128H296h-8V80H416v48zm-160 0h-8H224v48h24 8v32H160V176h8 24V128H168h-8V80h96v48zm-128 0h-8H96v48h24 8v32H48V80h80v48zM48 432V240h80v24h-8H96v48h24 8v24h-8H96v48h24 8v48H48zm112-48h8 24V336H168h-8V312h8 24V264H168h-8V240h96v24h-8H224v48h24 8v24h-8H224v48h24 8v48H160V384zm128-72h8 24V264H296h-8V240H416v96h-8H384v48h24 8v48H288V384h8 24V336H296h-8V312zm160 72h8 24V336H456h-8V240h80V432H448V384zM48 32H0V80 432v48H48 528h48V432 80 32H528 48z"/></svg>
